assets/01_base/Base_49.svg

<svg width="500" height="500" viewBox="0 0 500 500" fill="none" xmlns="http://www.w3.org/2000/svg">
<g clip-path="url(#clip0_70_612)">
<g clip-path="url(#clip1_70_612)">
<path d="M221.781 435.451L106.594 435.234L231.976 378.242L220.849 353.93L94.0861 411.541L151.696 284.778L127.385 273.651L70.393 399.032L70.1757 283.846L43.4772 283.796L43.7626 435.099C43.7904 449.847 55.7636 461.82 70.5115 461.848L221.814 462.133L221.764 435.435L221.781 435.451Z" fill="#995300"/>
<path d="M209.948 462.127L466.307 462.611C465.867 229.276 276.361 39.7697 43.0257 39.3294L43.5094 295.689C135.258 295.862 209.775 370.379 209.94 462.119L209.948 462.127Z" fill="#F89C1C"/>
</g>
</g>
<defs>
<clipPath id="clip0_70_612">
<rect width="500" height="500" fill="white"/>
</clipPath>
<clipPath id="clip1_70_612">
<rect width="598.61" height="410.647" fill="white" transform="translate(130.371 -48) rotate(45)"/>
</clipPath>
</defs>
</svg>

<svg xmlns="http://www.w3.org/2000/svg" width="500" height="500" fill="none" viewBox="0 0 500 500"><g clip-path="url(#Base_49_svg_clip0_70_612)"><g clip-path="url(#Base_49_svg_clip1_70_612)"><path fill="#995300" d="m221.781 435.451-115.187-.217 125.382-56.992-11.127-24.312-126.763 57.611 57.61-126.763-24.311-11.127-56.992 125.381-.217-115.186-26.699-.05.286 151.303c.027 14.748 12 26.721 26.749 26.749l151.302.285-.05-26.698z"/><path fill="#f89c1c" d="m209.948 462.127 256.359.484C465.867 229.276 276.361 39.77 43.026 39.329l.483 256.36c91.749.173 166.266 74.69 166.431 166.43z"/></g></g><defs><clipPath id="Base_49_svg_clip0_70_612"><rect width="500" height="500" fill="#fff"/></clipPath><clipPath id="Base_49_svg_clip1_70_612"><rect width="598.61" height="410.647" fill="#fff" transform="rotate(45 123.127 133.372)"/></clipPath></defs></svg>
